X:4156
T:Menuett & Trio
T:k 1
O:england
C:Wolfgang Amadeus Mozart
R:Minuet
V:1 Program 1 0
V:2 Program 1 0 bass
M:3/4
L:1/4
Q:144
K:G
V:1
b/g/|Bcd|(dc)a/f/|ABc|(cB)b/g/|
V:2
K:G
z|G,A,B,|(B,A,)z|F,G,A,|(A,G,)z|
V:1
eg/e/^c|e/^c/A/G/F|(3B/A/G/ TFE|D2:|
V:2
G,2E,|^C,A,,D,|G,A,A,,|D,D,,:|
V:1
|:d/B/|^G=fe|(dc)c/A/|Fed|cBe/c/|
V:2
|:z|E,DC|(B,A,)A,/F,/|D,CB,|A,G,z|
V:1
Ac/A/F|D/F/A/c/B|(3e/c/A/GF|G2:|
V:2
C2A,|F,D,G,|CDD,|G,2:|
V:1
K:C
|:"^Trio"c/G/|EED/E/|EFd/B/|FFE/D/|DEe/4d/4c/4B/4|
V:2
K:C
|:C,/E,/|[C,G,][C,G,][B,,/G,/-][G,/C,/]|\
[C,G,-][G,D,][B,,/G,/-][G,/D,/]|[B,,G,][B,,G,][B,,G,]|[C,2G,2]C/4B,/4A,/4G,/4|
V:1
Aad/4c/4B/4A/4|Ggd/4B/4A/4G/4|(ed)^F|(AG):|
V:2
^F,2B,/4A,/4G,/4F,/4|E,2B,|CDD,|G,2:|
V:1
|:g/e/|^ccd/e/|(ef)f/d/|BBc/d/|(de) a/4g/4f/4e/4|
V:2
|:z|A,[G,A,][F,/A,/-][A,/E,/]|([E,A,-][A,D,]) z|G,[F,G,][E,/G,/-][G,/D,/]|([D,G,-][G,C,])F/4E/4D/4C/4|
V:1
dd'g/4f/4e/4d/4|cc'g/4e/4d/4c/4|agB|dc:|
V:2
B,2E/4D/4C/4B,/4|A,2E,|F,G,G,,|C,2:|


